dist/svg/footer-light.svg

<svg width="100%" height="100%" id="svg" viewBox="0 0 1440 590" xmlns="http://www.w3.org/2000/svg" class="transition duration-300 ease-in-out delay-150"><path d="M 0,600 L 0,337 C 76.19138755980862,344.6650717703349 152.38277511961724,352.33014354066984 246,353 C 339.61722488038276,353.66985645933016 450.6602870813397,347.3444976076555 562,316 C 673.3397129186603,284.6555023923445 784.9760765550241,228.29186602870814 871,204 C 957.0239234449759,179.70813397129186 1017.4354066985645,187.48803827751195 1108,165 C 1198.5645933014355,142.51196172248805 1319.2822966507179,89.75598086124403 1440,37 L 1440,600 L 0,600 Z" stroke="none" stroke-width="0" fill="#9ab3c1" fill-opacity="0.4" class="transition-all duration-300 ease-in-out delay-150 path-0"></path><path d="M 0,600 L 0,487 C 87.79904306220095,477.26794258373207 175.5980861244019,467.53588516746413 275,448 C 374.4019138755981,428.46411483253587 485.4066985645934,399.1244019138756 574,373 C 662.5933014354066,346.8755980861244 728.7751196172247,323.9665071770335 816,313 C 903.2248803827753,302.0334928229665 1011.4928229665072,303.00956937799043 1119,284 C 1226.5071770334928,264.99043062200957 1333.2535885167463,225.99521531100478 1440,187 L 1440,600 L 0,600 Z" stroke="none" stroke-width="0" fill="#9ab3c1" fill-opacity="0.53" class="transition-all duration-300 ease-in-out delay-150 path-1"></path><path d="M 0,600 L 0,637 C 88.05741626794261,639.6602870813397 176.11483253588523,642.3205741626795 276,639 C 375.8851674641148,635.6794258373205 487.5980861244018,626.377990430622 589,599 C 690.4019138755982,571.622009569378 781.4928229665072,526.1674641148325 872,501 C 962.5071770334928,475.83253588516754 1052.4306220095693,470.9521531100479 1147,447 C 1241.5693779904307,423.0478468899521 1340.7846889952152,380.02392344497605 1440,337 L 1440,600 L 0,600 Z" stroke="none" stroke-width="0" fill="#9ab3c1" fill-opacity="1" class="transition-all duration-300 ease-in-out delay-150 path-2"></path></svg>

<svg xmlns="http://www.w3.org/2000/svg" class="transition duration-300 ease-in-out delay-150" viewBox="0 0 1440 590"><path fill="#9ab3c1" fill-opacity=".4" d="M0 600V337c76.191 7.665 152.383 15.33 246 16s204.66-5.656 316-37 222.976-87.708 309-112 146.435-16.512 237-39 211.282-75.244 332-128v563z" class="transition-all duration-300 ease-in-out delay-150 path-0"/><path fill="#9ab3c1" fill-opacity=".53" d="M0 600V487c87.799-9.732 175.598-19.464 275-39s210.407-48.876 299-75 154.775-49.033 242-60 195.493-9.99 303-29 214.254-58.005 321-97v413z" class="transition-all duration-300 ease-in-out delay-150 path-1"/><path fill="#9ab3c1" d="M0 600v37c88.057 2.66 176.115 5.32 276 2s211.598-12.622 313-40 192.493-72.833 283-98 180.43-30.048 275-54 193.785-66.976 293-110v263z" class="transition-all duration-300 ease-in-out delay-150 path-2"/></svg>
